X: 061
T: I can't get over the Ditch
%R: reel
B: Thompson's Twenty four Country Dances (for the Year 1804) p.6 #1
S: http://folkopedia.efdss.org/images/2/28/Thompson24_1804.PDF  2014-8-2
Z: 2014 John Chambers <jc:trillian.mit.edu>
M: 2/4
L: 1/16
K: F
|:\
fcAc FcAc | fcac gedc |\
fcAc FcAc | fage f2f2 :|\
|:\
afaf bd'd'2 | c'agf gedc |
afaf bd'd'2 | c'agf Hc'4 |]|\
fcAc FcAc | fcac gedc |\
fcAc FcAc | fage f2f2 :|
% - - - - - - - - - - - - - - - - - - - - - - - - -
%%begintext align
%% Change sides and back again lead down the
%% middle up again Pousette.
%%endtext
% - - - - - - - - - - - - - - - - - - - - - - - - -
